X:1
T:Title
%%score { 1 | 2 }
L:1/8
Q:1/4=100
M:6/8
K:Bb
V:1 treble nm="Grand Piano"
V:2 bass 
V:1
 [DF][DF][DF] [EG][EG][EG] | [DF][DF][DF] D3 | BBB [CA][DB][Ec] | [DB]6 | %4
w: William~Kirkpatrick * * * * *||||
 [DF][DF][DF] [EG][EG][EG] | [DF][DF][DF] D3 | BBB [CA][DB][Ec] | [DB]6 | [Fd]3 [Fd][DF][DB] | %9
w: |||||
 [Fd][Fd][Ge] .[Fd]3 | c3 cFA | ccd .c3 | [Fd][Fd][Fd] [Fd]2 [DB] |[M:7/8] GGG [Ge]3 z | %14
w: |||||
[M:3/4] dc B d2 c | B2 A [DB]3 |] %16
w: ||
V:2
 [B,,B,][B,,B,][B,,B,] [B,,B,][B,,B,][B,,B,] | [B,,B,][B,,B,][B,,B,] [B,,F,B,]3 | %2
 [F,D][F,D][F,D] [F,,F,][F,,F,][F,,F,] | [B,,F,]6 | [B,,B,][B,,B,][B,,B,] [B,,B,][B,,B,][B,,B,] | %5
 [B,,B,][B,,B,][B,,B,] [B,,F,B,]3 | [F,D][F,D][F,D] [F,,F,][F,,F,][F,,F,] | [B,,F,]6 | %8
 [B,,B,]3 [B,,B,][B,,B,][B,,B,] | [B,,B,][B,,B,][B,,B,] .[B,,B,]3 | [F,A,F]3 [F,A,F][F,A,][F,CF] | %11
 [F,A,F][F,A,F][F,B,F] .[F,A,F]3 | [B,,B,][B,,B,][B,,B,] [B,,B,]2 [B,,B,] | %13
[M:7/8] [E,B,E][E,B,E][E,B,E] [E,B,]3 z |[M:3/4] [F,B,F][F,B,E] [F,B,D] [F,B,F]2 [F,E] | %15
 [F,D]2 [F,C] [B,,F,]3 |] %16

